public/svgs/icon-note-lock-primary.svg

<svg fill="none" height="16" viewBox="0 0 13 16" width="13" xmlns="http://www.w3.org/2000/svg"><path d="m10.6667 5.33333h-.76194v-1.52381c0-2.10285-1.70666-3.80952-3.80952-3.80952s-3.80953 1.70667-3.80953 3.80952v1.52381h-.7619c-.838096 0-1.52381.68572-1.52381 1.52381v7.61906c0 .8381.685714 1.5238 1.52381 1.5238h9.14289c.8381 0 1.5238-.6857 1.5238-1.5238v-7.61906c0-.83809-.6857-1.52381-1.5238-1.52381zm-4.57146 6.85717c-.8381 0-1.52381-.6857-1.52381-1.5238 0-.83813.68571-1.52384 1.52381-1.52384.83809 0 1.52381.68571 1.52381 1.52384 0 .8381-.68572 1.5238-1.52381 1.5238zm2.3619-6.85717h-4.72381v-1.52381c0-1.30285 1.05905-2.3619 2.36191-2.3619s2.3619 1.05905 2.3619 2.3619z" fill="#FF6D3A"/></svg>

<svg xmlns="http://www.w3.org/2000/svg" width="13" height="16" fill="none"><path fill="#FF6D3A" d="M10.667 5.333h-.762V3.81a3.81 3.81 0 0 0-7.619 0v1.523h-.762C.686 5.333 0 6.02 0 6.857v7.62C0 15.313.686 16 1.524 16h9.143c.838 0 1.524-.686 1.524-1.524V6.857c0-.838-.686-1.524-1.524-1.524zM6.095 12.19a1.528 1.528 0 0 1-1.524-1.523c0-.838.686-1.524 1.524-1.524s1.524.686 1.524 1.524-.686 1.524-1.524 1.524zm2.362-6.857H3.733V3.81c0-1.303 1.06-2.362 2.362-2.362S8.457 2.507 8.457 3.81z"/></svg>
